icon-themes/breeze_svg/cmd/lc_toggleobjectrotatemode.svg

<svg viewBox="0 0 24 24" xmlns="http://www.w3.org/2000/svg"><path d="m4 4v10h8v-6h2c1.10801 0 2 .89199 2 2v2h-3v1h3 1 2v6h-8v-4h-1v5h10v-8h-3v-2c0-1.66201-1.33799-3-3-3h-2v-3zm1 1h6v8h-6z" fill="#4d4d4d"/></svg>

<svg xmlns="http://www.w3.org/2000/svg" viewBox="0 0 24 24">
 <path 
     style="fill:#4d4d4d" 
     d="M 4 4 L 4 14 L 12 14 L 12 8 L 14 8 C 15.10801 8 16 8.89199 16 10 L 16 12 L 13 12 L 13 13 L 16 13 L 17 13 L 19 13 L 19 19 L 11 19 L 11 15 L 10 15 L 10 20 L 20 20 L 20 12 L 17 12 L 17 10 C 17 8.33799 15.66201 7 14 7 L 12 7 L 12 4 L 4 4 z M 5 5 L 11 5 L 11 13 L 5 13 L 5 5 z "
     />
 </svg>
